X:143
T:Colin's Tambourine
C:Colin Hume, 2001
M:2/2
L:1/4
S:Colin Hume's website,  colinhume.com  - chords can also be printed below the stave.
Q:1/2=112
K:G
P:A
|: "G"Bd "/"BG | "C"eg "/"ec | "G"Bd "/"BG | "D"AD "/"D2 |\
"Am"cc- "/"cB/A/ | "Em"BB- "/"B A/G/ |1 "D"ADAD/B/- | B/D/ AFD :|2 "D"AD "/"AD | "G"Gz "-"G/A/B/c/ |
P:B
|: "G".dz "E7".e z/B/ | "Am"cA "D"dz/c/ | "Em"BG "Am"cB | "D"A/G/F/E/ "/"D3/D/ |\
"C"EG "D"FA | "Em"GB "D7/F#"A B/c/ | "G"dG "C"c/B/A/G/ |1 "D"A2- "/"AB/c/ :|2 "D"A2- "/"AF/G/ |
P:C
| "D/F#"AA "/"AA | "G7/F"BB "/"BB | "C/E"cc "/"cc | "G7/D"dd "/"dd |\
"C"e3/f/ "/"g f/e/ | "G"dc "/"BG | "D7"A2 "/"d2 | "G"G4 |]

